X: 1923
T: Ten Pretty Girls
C:Wilhelm Grotsz (1894 -1939)
B: australian traditional tunes wiki
M:4/4
L:1/8
R: Schottische
Q: 1/4=100
K:D
V:1 
D>E|:"D"F2F>GF2E>D|F2A2A2d>e|f2f>ed2c>B|A2F2F2c>d|
"A7"e2e>dc2B>c|"D"d2d>BA2A>B|"A7"c2c>BA2A>e|1"D"d6:|2"D"d6"Fine"D2||
||"C"E2D2"F"c3d|"G7"c2B2B2zc|"E7"B2AB "F"c>c Bc|"G7"e2d4E2|
"Dm"F2F2d3e|"A7"d2^c2c2c>d|e>f e>d ^c>d c>B|"A7"A>B A>G ^F>E "D.C. al fine"D>E||
% abcbook-tune_id 6342d5beffd8de94d2178089


% abcbook-boost 0
% abcbook-tablature 
% abcbook-transpose 
% abcbook-lastupdated 1665324488171
% abcbook-soundfonts 
% abcbook-repeats 1
% NFF Book 2013

